src/icons/IALogo.svg

<svg width="17" height="16" viewBox="0 0 17 16" fill="none" xmlns="http://www.w3.org/2000/svg">
<path d="M10.5 2.66113C11.5097 2.66113 12.3281 1.84265 12.3281 0.833008H13.1719C13.1719 1.84265 13.9903 2.66113 15 2.66113V3.50488C13.9903 3.50488 13.1719 4.32337 13.1719 5.33301H12.3281C12.3281 4.32337 11.5097 3.50488 10.5 3.50488V2.66113ZM0.75 7.58301C3.23528 7.58301 5.25 5.56829 5.25 3.08301H6.75C6.75 5.56829 8.76472 7.58301 11.25 7.58301V9.08301C8.76472 9.08301 6.75 11.0977 6.75 13.583H5.25C5.25 11.0977 3.23528 9.08301 0.75 9.08301V7.58301ZM12.9375 9.83301C12.9375 11.1792 11.8462 12.2705 10.5 12.2705V13.3955C11.8462 13.3955 12.9375 14.4868 12.9375 15.833H14.0625C14.0625 14.4868 15.1538 13.3955 16.5 13.3955V12.2705C15.1538 12.2705 14.0625 11.1792 14.0625 9.83301H12.9375Z" fill="#F7DF1F"/>
</svg>

<svg width="17" height="16" fill="none" xmlns="http://www.w3.org/2000/svg"><path d="M10.5 2.661c1.01 0 1.828-.818 1.828-1.828h.844c0 1.01.818 1.828 1.828 1.828v.844c-1.01 0-1.828.818-1.828 1.828h-.844c0-1.01-.818-1.828-1.828-1.828V2.66ZM.75 7.583a4.5 4.5 0 0 0 4.5-4.5h1.5a4.5 4.5 0 0 0 4.5 4.5v1.5a4.5 4.5 0 0 0-4.5 4.5h-1.5a4.5 4.5 0 0 0-4.5-4.5v-1.5Zm12.188 2.25a2.437 2.437 0 0 1-2.438 2.438v1.124a2.437 2.437 0 0 1 2.438 2.438h1.124a2.437 2.437 0 0 1 2.438-2.438v-1.124a2.437 2.437 0 0 1-2.438-2.438h-1.124Z" fill="#F7DF1F"/></svg>
